Newaita-dark/apps/48/tomato.svg

<svg height="48pt" viewBox="0 0 48 48" width="48pt" xmlns="http://www.w3.org/2000/svg" xmlns:xlink="http://www.w3.org/1999/xlink"><linearGradient id="a"><stop offset="0" stop-opacity=".313726"/><stop offset=".222222" stop-opacity=".27451"/><stop offset="1" stop-opacity="0"/></linearGradient><radialGradient id="b" cx="450.908936" cy="189.579361" gradientTransform="matrix(.00000026 -.117199 -.210958 -.00000015 66.784728 95.392994)" gradientUnits="userSpaceOnUse" r="21.166656" xlink:href="#a"/><radialGradient id="c" cx="450.908936" cy="189.579361" gradientTransform="matrix(-.00000026 .117199 .210958 .00000015 -19.155178 -11.291223)" gradientUnits="userSpaceOnUse" r="21.166656" xlink:href="#a"/><radialGradient id="d" cx="450.908936" cy="189.579361" gradientTransform="matrix(-.00000026 -.117199 .210958 -.00000015 -19.155178 95.392994)" gradientUnits="userSpaceOnUse" r="21.166656" xlink:href="#a"/><radialGradient id="e" cx="450.908936" cy="189.579361" gradientTransform="matrix(.00000026 .117199 -.210958 .00000015 66.784725 -11.291224)" gradientUnits="userSpaceOnUse" r="21.166656" xlink:href="#a"/><linearGradient id="f" gradientTransform="matrix(.0200401 0 0 .093759 18.698079 20.158175)" gradientUnits="userSpaceOnUse" x1="255.323059" x2="255.323044" y1="233.5" y2="254.666656"><stop offset="0" stop-opacity=".27451"/><stop offset="1" stop-opacity="0"/></linearGradient><linearGradient id="g" gradientUnits="userSpaceOnUse" x1="21.98687742276" x2="21.98687742276" y1="42.05088215" y2="7.32101645447"><stop offset="0" stop-color="#ef5350"/><stop offset="1" stop-color="#e57373"/></linearGradient><path d="m27.289062 42.050781h3.96875v-1.984375h-3.96875zm0 0" fill="url(#b)"/><path d="m20.339844 42.050781h-3.96875v1.984375h3.96875zm0 0" fill="url(#c)"/><path d="m20.339844 42.050781h-3.96875v-1.984375h3.96875zm0 0" fill="url(#d)"/><path d="m27.289062 42.050781h3.96875v1.984375h-3.96875zm0 0" fill="url(#e)"/><path d="m20.339844 41.554688h6.949218v2.480468h-6.949218zm0 0" fill="url(#f)"/><path d="m23.816406 7.320312c9.589844 0 17.363282 7.773438 17.363282 17.367188 0 9.589844-7.773438 17.363281-17.363282 17.363281-9.59375 0-17.367187-7.773437-17.367187-17.363281 0-9.59375 7.773437-17.367188 17.367187-17.367188zm0 0" fill="url(#g)"/><path d="m23.816406 7.320312c-9.621094 0-17.367187 7.746094-17.367187 17.367188 0 .082031 0 .164062.003906.246094.128906-9.503906 7.824219-17.117188 17.363281-17.117188 9.535156 0 17.230469 7.613282 17.363282 17.117188 0-.082032 0-.164063 0-.246094 0-9.621094-7.746094-17.367188-17.363282-17.367188zm0 0" fill="#fff" fill-opacity=".392157"/><path d="m23.816406 7.179688c-9.699218 0-17.507812 7.808593-17.507812 17.507812 0 9.695312 7.808594 17.503906 17.507812 17.503906 9.695313 0 17.503906-7.808594 17.503906-17.503906 0-9.699219-7.808593-17.507812-17.503906-17.507812zm0 .28125c9.542969 0 17.222656 7.679687 17.222656 17.226562 0 9.542969-7.679687 17.222656-17.222656 17.222656-9.546875 0-17.226562-7.679687-17.226562-17.222656 0-9.546875 7.679687-17.226562 17.226562-17.226562zm0 0" fill="#212121"/><path d="m23.816406 4.34375c-.320312 0-.621094.15625-.804687.414062-.1875.257813-.238281.589844-.136719.890626.152344.460937.179688.941406.121094 1.449218-2.757813-.765625-5.511719-1.570312-8.804688 2.636719 1.152344.25 2.074219.472656 2.847656.636719-.390624.683594-.835937 1.523437-1.414062 2.554687 3.386719.203125 5.117188-.765625 6.25-2.164062-.625 1.855469.214844 3 1.941406 6.480469 1.890625-2.433594 2.207032-4.289063 1.867188-5.902344 1.589844 1.753906 3.746094 1.875 5.8125 2.265625-.421875-1.375-.761719-2.371094-1.128906-3.117188 1.035156-.15625 2.050781-.492187 3.074218-.753906-2.277344-2.507813-3.269531-3.316406-4.871094-3.308594-.84375.007813-1.859374.242188-3.316406.574219.050782-.582031.046875-1.140625.046875-1.664062 0-.546876-.441406-.992188-.988281-.992188zm0 0" fill="#66bb6a"/><path d="m23.816406 4.34375c-.296875 0-.578125.132812-.765625.359375-.1875.230469-.265625.527344-.210937.816406.089844-.464843.5-.804687.976562-.804687h.496094c.539062 0 .980469.4375.988281.980468 0-.121093 0-.242187 0-.359374 0-.546876-.441406-.992188-.988281-.992188zm4.753906 2.082031c-.839843.007813-1.851562.238281-3.292968.566407-.003906.125-.011719.25-.023438.378906 1.457032-.332032 2.472656-.566406 3.316406-.570313 1.535157-.011719 2.511719.734375 4.597657 3.003907.089843-.023438.179687-.046876.273437-.070313-2.277344-2.507813-3.269531-3.316406-4.871094-3.308594zm-8.835937.058594c-1.730469-.015625-3.535156.6875-5.542969 3.25.085938.019531.167969.035156.253906.054687 3.183594-3.847656 5.867188-3.066406 8.550782-2.320312.027344-.222656.035156-.4375.023437-.652344-.003906.09375-.011719.1875-.023437.28125-1.074219-.300781-2.152344-.605468-3.261719-.613281zm-2.882813 4.21875c-.347656.617187-.738281 1.351563-1.226562 2.222656.070312.003907.136719.007813.203125.011719.480469-.871094.867187-1.589844 1.210937-2.195312-.058593-.011719-.125-.027344-.1875-.039063zm13.675782.128906c-.054688.011719-.105469.019531-.160156.027344.328124.671875.640624 1.550781 1.003906 2.722656.042968.007813.082031.015625.125.023438-.359375-1.171875-.660156-2.070313-.96875-2.773438zm-8.652344.300781c-.046875.058594-.09375.117188-.144531.175782-.054688.277344-.070313.542968-.054688.8125.015625-.316406.082031-.640625.199219-.988282zm3.808594.578126c.0625.304687.105468.617187.117187.941406.007813-.292969-.007812-.578125-.042969-.855469-.023437-.027344-.050781-.054687-.074218-.085937zm0 0" fill="#fff" fill-opacity=".392157"/><path d="m22.835938 5.421875c-.023438.15625-.011719.3125.039062.464844.089844.265625.132812.542969.144531.828125.015625-.390625-.023437-.765625-.144531-1.128906-.019531-.054688-.03125-.109376-.039062-.164063zm2.464843.136719c0 .441406-.007812.898437-.046875 1.375.007813 0 .011719-.003906.019532-.003906.027343-.472657.027343-.929688.027343-1.359376 0-.003906 0-.007812 0-.011718zm-10.90625 4.15625c-.070312.082031-.136719.167968-.203125.253906 1.078125.234375 1.953125.445312 2.699219.605469.050781-.09375.101563-.183594.148437-.269531-.726562-.148438-1.585937-.355469-2.644531-.589844zm18.824219.011718c-.945312.253907-1.890625.554688-2.851562.699219.042968.085938.085937.179688.128906.277344.992187-.164063 1.964844-.480469 2.945312-.734375-.078125-.082031-.148437-.164062-.222656-.242188zm-11.34375.972657c-1.113281 1.371093-2.808594 2.335937-6.085938 2.171875-.054687.09375-.109374.191406-.164062.289062 3.265625.195313 4.992188-.699218 6.125-2.011718.03125-.144532.074219-.296876.125-.449219zm3.808594.578125c.023437.121094.046875.246094.0625.367187 1.585937 1.6875 3.714844 1.808594 5.75 2.195313-.035156-.109375-.066406-.210938-.101563-.316406-2.03125-.378907-4.144531-.519532-5.710937-2.246094zm-4.011719.746094c-.0625 1.363281.753906 2.648437 2.144531 5.457031 1.519532-1.960938 2.023438-3.542969 1.984375-4.925781-.039062 1.3125-.574219 2.804687-1.984375 4.625-1.289062-2.601563-2.085937-3.894532-2.144531-5.15625zm0 0" fill-opacity=".235294"/><path d="m23.816406 42.050781c-9.621094 0-17.367187-7.746093-17.367187-17.363281 0-.085938 0-.167969.003906-.25.128906 9.503906 7.824219 17.117188 17.363281 17.117188 9.535156 0 17.230469-7.613282 17.363282-17.117188v.25c0 9.617188-7.746094 17.363281-17.363282 17.363281zm0 0" fill-opacity=".235294"/><path d="m23.816406 4.203125c-.769531 0-1.320312.761719-1.074218 1.492187.128906.386719.160156.789063.125 1.222657-1.324219-.367188-2.667969-.730469-4.09375-.503907-1.484376.234376-3.03125 1.113282-4.695313 3.234376l-.136719.175781.21875.046875c1.070313.234375 1.925782.4375 2.664063.59375-.371094.660156-.785157 1.4375-1.320313 2.390625l-.109375.195312.222657.015625c3.058593.183594 4.8125-.59375 5.980468-1.78125-.136718.71875-.046875 1.382813.234375 2.15625.351563.96875.996094 2.125 1.855469 3.863282l.101562.203124.136719-.175781c1.742188-2.242187 2.171875-4.027343 1.96875-5.578125 1.59375 1.496094 3.652344 1.625 5.574219 1.988282l.226562.042968-.066406-.222656c-.390625-1.277344-.714844-2.226562-1.058594-2.964844.988282-.167968 1.945313-.480468 2.90625-.726562l.222657-.058594-.15625-.171875c-1.136719-1.257813-1.957031-2.089844-2.710938-2.617187-.75-.527344-1.4375-.742188-2.265625-.738282-.828125.007813-1.808594.226563-3.160156.535156.035156-.519531.035156-1.019531.035156-1.484374 0-.625-.507812-1.132813-1.128906-1.132813zm0 .28125h.496094c.46875 0 .847656.378906.847656.851563 0 .523437 0 1.078124-.046875 1.648437l-.015625.195313.1875-.042969c1.457032-.332031 2.464844-.5625 3.285156-.570313.777344-.003906 1.386719.183594 2.101563.6875.679687.476563 1.457031 1.253906 2.507813 2.40625-.953126.253906-1.890626.546875-2.832032.6875l-.191406.027344.085938.175781c.335937.691407.660156 1.625 1.046874 2.875-2-.363281-4.007812-.535156-5.503906-2.179687l-.347656-.386719.105469.511719c.328125 1.53125.046875 3.28125-1.703125 5.605468-.808594-1.613281-1.417969-2.738281-1.746094-3.632812-.339844-.933594-.390625-1.632812-.085938-2.535156l-.242187-.132813c-1.082031 1.332031-2.703125 2.265625-5.90625 2.117188.519531-.933594.941406-1.71875 1.300781-2.351563l.097656-.167968-.1875-.042969c-.71875-.148438-1.585937-.355469-2.628906-.585938 1.578125-1.953125 3.007813-2.738281 4.375-2.953125 1.40625-.222656 2.765625.160156 4.144532.542969l.15625.042969.019531-.164063c.058593-.523437.03125-1.027343-.128907-1.507812-.183593-.554688.222657-1.121094.808594-1.121094zm0 0" fill="#212121"/><path d="m12.453125 16.859375c.796875.210937 1.035156 1.886719.539063 3.738281-.496094 1.855469-1.542969 3.183594-2.335938 2.96875-.792969-.210937-1.035156-1.886718-.539062-3.738281.496093-1.851563 1.542968-3.183594 2.335937-2.96875zm0 0" fill="#fff" fill-opacity=".392157"/></svg>

<?xml version="1.0" encoding="UTF-8"?>
<svg xmlns="http://www.w3.org/2000/svg" xmlns:xlink="http://www.w3.org/1999/xlink" width="48pt" height="48pt" viewBox="0 0 48 48" version="1.1">
<defs>
<radialGradient id="radial0" gradientUnits="userSpaceOnUse" cx="450.908936" cy="189.579361" fx="450.908936" fy="189.579361" r="21.166656" gradientTransform="matrix(0.000000261256,-0.117199,-0.210958,-0.000000152308,66.784728,95.392994)">
<stop offset="0" style="stop-color:rgb(0%,0%,0%);stop-opacity:0.313726;"/>
<stop offset="0.222222" style="stop-color:rgb(0%,0%,0%);stop-opacity:0.27451;"/>
<stop offset="1" style="stop-color:rgb(0%,0%,0%);stop-opacity:0;"/>
</radialGradient>
<radialGradient id="radial1" gradientUnits="userSpaceOnUse" cx="450.908936" cy="189.579361" fx="450.908936" fy="189.579361" r="21.166656" gradientTransform="matrix(-0.000000261256,0.117199,0.210958,0.000000152308,-19.155178,-11.291223)">
<stop offset="0" style="stop-color:rgb(0%,0%,0%);stop-opacity:0.313726;"/>
<stop offset="0.222222" style="stop-color:rgb(0%,0%,0%);stop-opacity:0.27451;"/>
<stop offset="1" style="stop-color:rgb(0%,0%,0%);stop-opacity:0;"/>
</radialGradient>
<radialGradient id="radial2" gradientUnits="userSpaceOnUse" cx="450.908936" cy="189.579361" fx="450.908936" fy="189.579361" r="21.166656" gradientTransform="matrix(-0.000000261256,-0.117199,0.210958,-0.000000152308,-19.155178,95.392994)">
<stop offset="0" style="stop-color:rgb(0%,0%,0%);stop-opacity:0.313726;"/>
<stop offset="0.222222" style="stop-color:rgb(0%,0%,0%);stop-opacity:0.27451;"/>
<stop offset="1" style="stop-color:rgb(0%,0%,0%);stop-opacity:0;"/>
</radialGradient>
<radialGradient id="radial3" gradientUnits="userSpaceOnUse" cx="450.908936" cy="189.579361" fx="450.908936" fy="189.579361" r="21.166656" gradientTransform="matrix(0.000000261256,0.117199,-0.210958,0.000000152308,66.784725,-11.291224)">
<stop offset="0" style="stop-color:rgb(0%,0%,0%);stop-opacity:0.313726;"/>
<stop offset="0.222222" style="stop-color:rgb(0%,0%,0%);stop-opacity:0.27451;"/>
<stop offset="1" style="stop-color:rgb(0%,0%,0%);stop-opacity:0;"/>
</radialGradient>
<linearGradient id="linear0" gradientUnits="userSpaceOnUse" x1="255.323059" y1="233.5" x2="255.323044" y2="254.666656" gradientTransform="matrix(0.0200401,0,0,0.093759,18.698079,20.158175)">
<stop offset="0" style="stop-color:rgb(0%,0%,0%);stop-opacity:0.27451;"/>
<stop offset="1" style="stop-color:rgb(0%,0%,0%);stop-opacity:0;"/>
</linearGradient>
<linearGradient id="linear1" gradientUnits="userSpaceOnUse" x1="232.833328" y1="233.5" x2="232.833328" y2="-168.666656" gradientTransform="matrix(0.0863569,0,0,0.0863569,1.880113,21.886546)">
<stop offset="0" style="stop-color:rgb(93.725491%,32.549021%,31.37255%);stop-opacity:1;"/>
<stop offset="1" style="stop-color:rgb(89.803922%,45.09804%,45.09804%);stop-opacity:1;"/>
</linearGradient>
</defs>
<g id="surface1">
<path style=" stroke:none;fill-rule:nonzero;fill:url(#radial0);" d="M 27.289062 42.050781 L 31.257812 42.050781 L 31.257812 40.066406 L 27.289062 40.066406 Z M 27.289062 42.050781 "/>
<path style=" stroke:none;fill-rule:nonzero;fill:url(#radial1);" d="M 20.339844 42.050781 L 16.371094 42.050781 L 16.371094 44.035156 L 20.339844 44.035156 Z M 20.339844 42.050781 "/>
<path style=" stroke:none;fill-rule:nonzero;fill:url(#radial2);" d="M 20.339844 42.050781 L 16.371094 42.050781 L 16.371094 40.066406 L 20.339844 40.066406 Z M 20.339844 42.050781 "/>
<path style=" stroke:none;fill-rule:nonzero;fill:url(#radial3);" d="M 27.289062 42.050781 L 31.257812 42.050781 L 31.257812 44.035156 L 27.289062 44.035156 Z M 27.289062 42.050781 "/>
<path style=" stroke:none;fill-rule:nonzero;fill:url(#linear0);" d="M 20.339844 41.554688 L 27.289062 41.554688 L 27.289062 44.035156 L 20.339844 44.035156 Z M 20.339844 41.554688 "/>
<path style=" stroke:none;fill-rule:nonzero;fill:url(#linear1);" d="M 23.816406 7.320312 C 33.40625 7.320312 41.179688 15.09375 41.179688 24.6875 C 41.179688 34.277344 33.40625 42.050781 23.816406 42.050781 C 14.222656 42.050781 6.449219 34.277344 6.449219 24.6875 C 6.449219 15.09375 14.222656 7.320312 23.816406 7.320312 Z M 23.816406 7.320312 "/>
<path style=" stroke:none;fill-rule:nonzero;fill:rgb(100%,100%,100%);fill-opacity:0.392157;" d="M 23.816406 7.320312 C 14.195312 7.320312 6.449219 15.066406 6.449219 24.6875 C 6.449219 24.769531 6.449219 24.851562 6.453125 24.933594 C 6.582031 15.429688 14.277344 7.816406 23.816406 7.816406 C 33.351562 7.816406 41.046875 15.429688 41.179688 24.933594 C 41.179688 24.851562 41.179688 24.769531 41.179688 24.6875 C 41.179688 15.066406 33.433594 7.320312 23.816406 7.320312 Z M 23.816406 7.320312 "/>
<path style=" stroke:none;fill-rule:nonzero;fill:rgb(12.941177%,12.941177%,12.941177%);fill-opacity:1;" d="M 23.816406 7.179688 C 14.117188 7.179688 6.308594 14.988281 6.308594 24.6875 C 6.308594 34.382812 14.117188 42.191406 23.816406 42.191406 C 33.511719 42.191406 41.320312 34.382812 41.320312 24.6875 C 41.320312 14.988281 33.511719 7.179688 23.816406 7.179688 Z M 23.816406 7.460938 C 33.359375 7.460938 41.039062 15.140625 41.039062 24.6875 C 41.039062 34.230469 33.359375 41.910156 23.816406 41.910156 C 14.269531 41.910156 6.589844 34.230469 6.589844 24.6875 C 6.589844 15.140625 14.269531 7.460938 23.816406 7.460938 Z M 23.816406 7.460938 "/>
<path style=" stroke:none;fill-rule:nonzero;fill:rgb(40.000001%,73.333335%,41.568628%);fill-opacity:1;" d="M 23.816406 4.34375 C 23.496094 4.34375 23.195312 4.5 23.011719 4.757812 C 22.824219 5.015625 22.773438 5.347656 22.875 5.648438 C 23.027344 6.109375 23.054688 6.589844 22.996094 7.097656 C 20.238281 6.332031 17.484375 5.527344 14.191406 9.734375 C 15.34375 9.984375 16.265625 10.207031 17.039062 10.371094 C 16.648438 11.054688 16.203125 11.894531 15.625 12.925781 C 19.011719 13.128906 20.742188 12.160156 21.875 10.761719 C 21.25 12.617188 22.089844 13.761719 23.816406 17.242188 C 25.707031 14.808594 26.023438 12.953125 25.683594 11.339844 C 27.273438 13.09375 29.429688 13.214844 31.496094 13.605469 C 31.074219 12.230469 30.734375 11.234375 30.367188 10.488281 C 31.402344 10.332031 32.417969 9.996094 33.441406 9.734375 C 31.164062 7.226562 30.171875 6.417969 28.570312 6.425781 C 27.726562 6.433594 26.710938 6.667969 25.253906 7 C 25.304688 6.417969 25.300781 5.859375 25.300781 5.335938 C 25.300781 4.789062 24.859375 4.34375 24.3125 4.34375 Z M 23.816406 4.34375 "/>
<path style=" stroke:none;fill-rule:nonzero;fill:rgb(100%,100%,100%);fill-opacity:0.392157;" d="M 23.816406 4.34375 C 23.519531 4.34375 23.238281 4.476562 23.050781 4.703125 C 22.863281 4.933594 22.785156 5.230469 22.839844 5.519531 C 22.929688 5.054688 23.339844 4.714844 23.816406 4.714844 L 24.3125 4.714844 C 24.851562 4.714844 25.292969 5.152344 25.300781 5.695312 C 25.300781 5.574219 25.300781 5.453125 25.300781 5.335938 C 25.300781 4.789062 24.859375 4.34375 24.3125 4.34375 Z M 28.570312 6.425781 C 27.730469 6.433594 26.71875 6.664062 25.277344 6.992188 C 25.273438 7.117188 25.265625 7.242188 25.253906 7.371094 C 26.710938 7.039062 27.726562 6.804688 28.570312 6.800781 C 30.105469 6.789062 31.082031 7.535156 33.167969 9.804688 C 33.257812 9.78125 33.347656 9.757812 33.441406 9.734375 C 31.164062 7.226562 30.171875 6.417969 28.570312 6.425781 Z M 19.734375 6.484375 C 18.003906 6.46875 16.199219 7.171875 14.191406 9.734375 C 14.277344 9.753906 14.359375 9.769531 14.445312 9.789062 C 17.628906 5.941406 20.3125 6.722656 22.996094 7.46875 C 23.023438 7.246094 23.03125 7.03125 23.019531 6.816406 C 23.015625 6.910156 23.007812 7.003906 22.996094 7.097656 C 21.921875 6.796875 20.84375 6.492188 19.734375 6.484375 Z M 16.851562 10.703125 C 16.503906 11.320312 16.113281 12.054688 15.625 12.925781 C 15.695312 12.929688 15.761719 12.933594 15.828125 12.9375 C 16.308594 12.066406 16.695312 11.347656 17.039062 10.742188 C 16.980469 10.730469 16.914062 10.714844 16.851562 10.703125 Z M 30.527344 10.832031 C 30.472656 10.84375 30.421875 10.851562 30.367188 10.859375 C 30.695312 11.53125 31.007812 12.410156 31.371094 13.582031 C 31.414062 13.589844 31.453125 13.597656 31.496094 13.605469 C 31.136719 12.433594 30.835938 11.535156 30.527344 10.832031 Z M 21.875 11.132812 C 21.828125 11.191406 21.78125 11.25 21.730469 11.308594 C 21.675781 11.585938 21.660156 11.851562 21.675781 12.121094 C 21.691406 11.804688 21.757812 11.480469 21.875 11.132812 Z M 25.683594 11.710938 C 25.746094 12.015625 25.789062 12.328125 25.800781 12.652344 C 25.808594 12.359375 25.792969 12.074219 25.757812 11.796875 C 25.734375 11.769531 25.707031 11.742188 25.683594 11.710938 Z M 25.683594 11.710938 "/>
<path style=" stroke:none;fill-rule:nonzero;fill:rgb(0%,0%,0%);fill-opacity:0.235294;" d="M 22.835938 5.421875 C 22.8125 5.578125 22.824219 5.734375 22.875 5.886719 C 22.964844 6.152344 23.007812 6.429688 23.019531 6.714844 C 23.035156 6.324219 22.996094 5.949219 22.875 5.585938 C 22.855469 5.53125 22.84375 5.476562 22.835938 5.421875 Z M 25.300781 5.558594 C 25.300781 6 25.292969 6.457031 25.253906 6.933594 C 25.261719 6.933594 25.265625 6.929688 25.273438 6.929688 C 25.300781 6.457031 25.300781 6 25.300781 5.570312 C 25.300781 5.566406 25.300781 5.5625 25.300781 5.558594 Z M 14.394531 9.714844 C 14.324219 9.796875 14.257812 9.882812 14.191406 9.96875 C 15.269531 10.203125 16.144531 10.414062 16.890625 10.574219 C 16.941406 10.480469 16.992188 10.390625 17.039062 10.304688 C 16.3125 10.15625 15.453125 9.949219 14.394531 9.714844 Z M 33.21875 9.726562 C 32.273438 9.980469 31.328125 10.28125 30.367188 10.425781 C 30.410156 10.511719 30.453125 10.605469 30.496094 10.703125 C 31.488281 10.539062 32.460938 10.222656 33.441406 9.96875 C 33.363281 9.886719 33.292969 9.804688 33.21875 9.726562 Z M 21.875 10.699219 C 20.761719 12.070312 19.066406 13.035156 15.789062 12.871094 C 15.734375 12.964844 15.679688 13.0625 15.625 13.160156 C 18.890625 13.355469 20.617188 12.460938 21.75 11.148438 C 21.78125 11.003906 21.824219 10.851562 21.875 10.699219 Z M 25.683594 11.277344 C 25.707031 11.398438 25.730469 11.523438 25.746094 11.644531 C 27.332031 13.332031 29.460938 13.453125 31.496094 13.839844 C 31.460938 13.730469 31.429688 13.628906 31.394531 13.523438 C 29.363281 13.144531 27.25 13.003906 25.683594 11.277344 Z M 21.671875 12.023438 C 21.609375 13.386719 22.425781 14.671875 23.816406 17.480469 C 25.335938 15.519531 25.839844 13.9375 25.800781 12.554688 C 25.761719 13.867188 25.226562 15.359375 23.816406 17.179688 C 22.527344 14.578125 21.730469 13.285156 21.671875 12.023438 Z M 21.671875 12.023438 "/>
<path style=" stroke:none;fill-rule:nonzero;fill:rgb(0%,0%,0%);fill-opacity:0.235294;" d="M 23.816406 42.050781 C 14.195312 42.050781 6.449219 34.304688 6.449219 24.6875 C 6.449219 24.601562 6.449219 24.519531 6.453125 24.4375 C 6.582031 33.941406 14.277344 41.554688 23.816406 41.554688 C 33.351562 41.554688 41.046875 33.941406 41.179688 24.4375 C 41.179688 24.519531 41.179688 24.601562 41.179688 24.6875 C 41.179688 34.304688 33.433594 42.050781 23.816406 42.050781 Z M 23.816406 42.050781 "/>
<path style=" stroke:none;fill-rule:nonzero;fill:rgb(12.941177%,12.941177%,12.941177%);fill-opacity:1;" d="M 23.816406 4.203125 C 23.046875 4.203125 22.496094 4.964844 22.742188 5.695312 C 22.871094 6.082031 22.902344 6.484375 22.867188 6.917969 C 21.542969 6.550781 20.199219 6.1875 18.773438 6.414062 C 17.289062 6.648438 15.742188 7.527344 14.078125 9.648438 L 13.941406 9.824219 L 14.160156 9.871094 C 15.230469 10.105469 16.085938 10.308594 16.824219 10.464844 C 16.453125 11.125 16.039062 11.902344 15.503906 12.855469 L 15.394531 13.050781 L 15.617188 13.066406 C 18.675781 13.25 20.429688 12.472656 21.597656 11.285156 C 21.460938 12.003906 21.550781 12.667969 21.832031 13.441406 C 22.183594 14.410156 22.828125 15.566406 23.6875 17.304688 L 23.789062 17.507812 L 23.925781 17.332031 C 25.667969 15.089844 26.097656 13.304688 25.894531 11.753906 C 27.488281 13.25 29.546875 13.378906 31.46875 13.742188 L 31.695312 13.785156 L 31.628906 13.5625 C 31.238281 12.285156 30.914062 11.335938 30.570312 10.597656 C 31.558594 10.429688 32.515625 10.117188 33.476562 9.871094 L 33.699219 9.8125 L 33.542969 9.640625 C 32.40625 8.382812 31.585938 7.550781 30.832031 7.023438 C 30.082031 6.496094 29.394531 6.28125 28.566406 6.285156 C 27.738281 6.292969 26.757812 6.511719 25.40625 6.820312 C 25.441406 6.300781 25.441406 5.800781 25.441406 5.335938 C 25.441406 4.710938 24.933594 4.203125 24.3125 4.203125 Z M 23.816406 4.484375 L 24.3125 4.484375 C 24.78125 4.484375 25.160156 4.863281 25.160156 5.335938 C 25.160156 5.859375 25.160156 6.414062 25.113281 6.984375 L 25.097656 7.179688 L 25.285156 7.136719 C 26.742188 6.804688 27.75 6.574219 28.570312 6.566406 C 29.347656 6.5625 29.957031 6.75 30.671875 7.253906 C 31.351562 7.730469 32.128906 8.507812 33.179688 9.660156 C 32.226562 9.914062 31.289062 10.207031 30.347656 10.347656 L 30.15625 10.375 L 30.242188 10.550781 C 30.578125 11.242188 30.902344 12.175781 31.289062 13.425781 C 29.289062 13.0625 27.28125 12.890625 25.785156 11.246094 L 25.4375 10.859375 L 25.542969 11.371094 C 25.871094 12.902344 25.589844 14.652344 23.839844 16.976562 C 23.03125 15.363281 22.421875 14.238281 22.09375 13.34375 C 21.753906 12.410156 21.703125 11.710938 22.007812 10.808594 L 21.765625 10.675781 C 20.683594 12.007812 19.0625 12.941406 15.859375 12.792969 C 16.378906 11.859375 16.800781 11.074219 17.160156 10.441406 L 17.257812 10.273438 L 17.070312 10.230469 C 16.351562 10.082031 15.484375 9.875 14.441406 9.644531 C 16.019531 7.691406 17.449219 6.90625 18.816406 6.691406 C 20.222656 6.46875 21.582031 6.851562 22.960938 7.234375 L 23.117188 7.277344 L 23.136719 7.113281 C 23.195312 6.589844 23.167969 6.085938 23.007812 5.605469 C 22.824219 5.050781 23.230469 4.484375 23.816406 4.484375 Z M 23.816406 4.484375 "/>
<path style=" stroke:none;fill-rule:nonzero;fill:rgb(100%,100%,100%);fill-opacity:0.392157;" d="M 12.453125 16.859375 C 13.25 17.070312 13.488281 18.746094 12.992188 20.597656 C 12.496094 22.453125 11.449219 23.78125 10.65625 23.566406 C 9.863281 23.355469 9.621094 21.679688 10.117188 19.828125 C 10.613281 17.976562 11.660156 16.644531 12.453125 16.859375 Z M 12.453125 16.859375 "/>
</g>
</svg>
